packages/ffe-icons/icons/open/400/sm/point_scan.svg

<svg xmlns="http://www.w3.org/2000/svg" height="20" viewBox="0 -960 960 960" width="20"><path d="M479.788-408Q450-408 429-429.212q-21-21.213-21-51Q408-510 429.212-531q21.213-21 51-21Q510-552 531-530.788q21 21.213 21 51Q552-450 530.788-429q-21.213 21-51 21ZM444-660v-168q0-15.3 10.289-25.65 10.29-10.35 25.5-10.35Q495-864 505.5-853.65 516-843.3 516-828v168q0 15.3-10.289 25.65-10.29 10.35-25.5 10.35Q465-624 454.5-634.35 444-644.7 444-660Zm0 528v-168q0-15.3 10.289-25.65 10.29-10.35 25.5-10.35Q495-336 505.5-325.65 516-315.3 516-300v168q0 15.3-10.289 25.65Q495.421-96 480.211-96 465-96 454.5-106.35 444-116.7 444-132Zm216-384h168q15.3 0 25.65 10.289 10.35 10.29 10.35 25.5Q864-465 853.65-454.5 843.3-444 828-444H660q-15.3 0-25.65-10.289-10.35-10.29-10.35-25.5Q624-495 634.35-505.5 644.7-516 660-516Zm-528 0h168q15.3 0 25.65 10.289 10.35 10.29 10.35 25.5Q336-465 325.65-454.5 315.3-444 300-444H132q-15.3 0-25.65-10.289Q96-464.579 96-479.789 96-495 106.35-505.5 116.7-516 132-516Z"/></svg>

<svg xmlns="http://www.w3.org/2000/svg" height="20" viewBox="0 -960 960 960" width="20"><path d="M479.79-408Q450-408 429-429.21t-21-51Q408-510 429.21-531t51-21Q510-552 531-530.79t21 51Q552-450 530.79-429t-51 21ZM444-660v-168q0-15.3 10.29-25.65Q464.58-864 479.79-864t25.71 10.35Q516-843.3 516-828v168q0 15.3-10.29 25.65Q495.42-624 480.21-624t-25.71-10.35Q444-644.7 444-660Zm0 528v-168q0-15.3 10.29-25.65Q464.58-336 479.79-336t25.71 10.35Q516-315.3 516-300v168q0 15.3-10.29 25.65Q495.42-96 480.21-96t-25.71-10.35Q444-116.7 444-132Zm216-384h168q15.3 0 25.65 10.29Q864-495.42 864-480.21t-10.35 25.71Q843.3-444 828-444H660q-15.3 0-25.65-10.29Q624-464.58 624-479.79t10.35-25.71Q644.7-516 660-516Zm-528 0h168q15.3 0 25.65 10.29Q336-495.42 336-480.21t-10.35 25.71Q315.3-444 300-444H132q-15.3 0-25.65-10.29Q96-464.58 96-479.79t10.35-25.71Q116.7-516 132-516Z"/></svg>
